X: 1
T:The Nutting Girl
M:4/4
C:
S:Bacon (Jour EFDS, 1928; alt. C, Rollo Woods)
N:
%:
%:
A:Bampton
O:English
R:Reel
%P:A.AB.(CB)$^2$
P:A.AB.(CB)2
K:G
I:speed 350
P:A
B>A |\
G2 G>A B>A G>B | d2    (3cdc A2 G>F | G2 B>c   d2    g2  | d4      d3  B   |\
c>de>c A2  B>c | B>c   d>B   G2 A>B | c2 (3AcA F2    D2  | G4      G2      ||\
P:B
B>A |\
G2 g2  g>e f>g | (3fgf d2    d2 B>c | d2 e>f   (3gag f>e | f4      f3  e   |\
d2 g2  g3  f   | e2    d2    d3 B   | A2 B2    c2    d2  | e>f g>e d>B c>A |\
G2 G>A B>A G>B | d2    (3cdc A2 G>F | G2 B>c   d2    g2  | d4      d3  B   |\
c>de>c A2  B>c | B>c   d>B   G2 A>B | c2 (3AcA F2    D2  | G4      G4      ||\
P:C
M:2/4
L:1/8
B3 A |\
M:4/4
G4 G4 | (3BcB A2 B3 c | d4 d4 | d3 c B3 A | G4 B3 c | d4 g4 | d8 |\
M:2/4
L:1/8
d2 B2 |\
M:4/4
c>de>c  A2 c2  | B>cd>B      G2 AB  | (3cdc A2 F2    D2  | G4      G2      ||
